images/icons/draws.svg

<svg height="32pt" viewBox="0 0 32 32" width="32pt" xmlns="http://www.w3.org/2000/svg"><g fill="#fff"><path d="m30.96875 17.90625-8.378906-8.375 4.371094-4.371094c.128906-.125.199218-.300781.199218-.480468 0-.179688-.074218-.351563-.199218-.476563l-4.070313-4.007813c-.261719-.2617182-.6875-.257812-.949219.003907l-3.535156 3.53125-3.53125-3.53125c-.128906-.1289065-.300781-.199219-.476562-.199219-.179688 0-.351563.0703125-.476563.199219l-8.859375 8.855469-4.03125 4.03125c-.261719.261718-.261719.6875 0 .953124l8.382812 8.382813-4.371093 4.371094c-.125.125-.195313.296875-.195313.476562 0 .179688.070313.347657.195313.476563l4.058593 4.054687c.132813.132813.304688.199219.476563.199219s.34375-.066406.476563-.199219l3.5625-3.5625 3.507812 3.511719c.128906.125.300781.195312.476562.195312.179688 0 .351563-.070312.480469-.195312l12.886719-12.886719c.261719-.265625.261719-.691406 0-.957031zm-12.085938-12.746094 3.539063-3.535156 3.105469 3.0625-7.929688 7.929688-3.085937-3.082032zm2.628907 13.277344-3.058594 3.058594-3.578125-3.582032-4.375-4.371093 3.058594-3.054688 3.5625 3.558594zm-7.113281-16.808594 3.054687 3.054688-2.058594 2.0625-2.3125 2.308594-3.535156 3.535156-3.054687-3.058594zm-11.9375 11.933594 1.0625-1.0625 5.121093 5.121094c.132813.132812.304688.199218.476563.199218s.34375-.066406.476562-.199218c.261719-.261719.261719-.6875 0-.953125l-5.121094-5.121094 1.0625-1.058594 7.902344 7.902344-1.074218 1.078125-2 2zm10.679687 13.246094-3.5625 3.5625-3.105469-3.101563 7.925782-7.925781 2.847656 2.851562.253906.253907zm4.460937 3.511718-3.03125-3.035156 7.894532-7.894531 3.03125 3.035156zm8.847657-8.847656-3.507813-3.511718-4.390625-4.390626 1.027344-1.027343 5.175781 5.175781c.132813.132812.304688.195312.476563.195312s.347656-.0625.476562-.195312c.265625-.265625.265625-.691406 0-.953125l-5.175781-5.175781 1.105469-1.105469 7.902343 7.898437zm0 0"/><path d="m11.226562 18.460938c-.007812-.042969-.019531-.085938-.035156-.128907-.019531-.039062-.039062-.078125-.0625-.117187-.027344-.035156-.054687-.070313-.085937-.101563s-.066407-.058593-.101563-.082031-.074218-.046875-.117187-.0625c-.039063-.015625-.082031-.03125-.125-.039062-.085938-.015626-.175781-.015626-.265625 0-.042969.007812-.082032.023437-.125.039062-.039063.015625-.078125.039062-.117188.0625-.035156.023438-.070312.050781-.101562.082031s-.058594.066407-.082032.101563c-.027343.039062-.046874.078125-.0625.117187-.015624.042969-.03125.085938-.039062.128907-.007812.042968-.011719.085937-.011719.128906 0 .046875.003907.089844.011719.132812.007812.042969.019531.085938.039062.125.015626.042969.035157.082032.0625.117188.023438.035156.050782.070312.082032.101562s.066406.0625.101562.085938c.039063.023437.078125.042968.117188.0625.042968.015625.082031.027344.125.035156.046875.011719.089844.015625.132812.015625.042969 0 .089844-.003906.132813-.015625.042969-.007812.085937-.019531.125-.035156.042969-.019532.082031-.039063.117187-.0625.035156-.023438.070313-.054688.101563-.085938s.058593-.066406.085937-.101562c.023438-.035156.042969-.074219.0625-.117188.015625-.039062.027344-.082031.035156-.125.011719-.042968.015626-.085937.015626-.132812 0-.042969-.003907-.085938-.015626-.128906zm0 0"/><path d="m27.339844 18.554688c-.011719-.042969-.023438-.085938-.039063-.125-.019531-.042969-.039062-.082032-.0625-.117188-.023437-.035156-.054687-.070312-.085937-.101562s-.0625-.058594-.101563-.085938c-.035156-.023438-.074219-.042969-.117187-.0625-.039063-.015625-.082032-.027344-.125-.035156-.085938-.019532-.175782-.019532-.261719 0-.042969.007812-.085937.019531-.128906.035156-.039063.019531-.078125.039062-.113281.0625-.039063.027344-.074219.054688-.105469.085938s-.058594.066406-.082031.101562c-.023438.035156-.046876.074219-.0625.117188-.015626.039062-.03125.082031-.039063.125-.007813.042968-.011719.089843-.011719.132812s.003906.085938.011719.132812c.007813.042969.023437.082032.039063.125.015624.039063.039062.078126.0625.117188.023437.035156.050781.070312.082031.101562s.066406.058594.105469.082032c.035156.023437.074218.046875.113281.0625.042969.015625.085937.03125.128906.039062.042969.007813.085937.011719.128906.011719.046875 0 .089844-.003906.132813-.011719.042968-.007812.085937-.023437.125-.039062.042968-.015625.082031-.039063.117187-.0625.039063-.023438.070313-.050782.101563-.082032.125-.125.199218-.300781.199218-.476562 0-.042969-.003906-.089844-.011718-.132812zm0 0"/></g></svg>

<?xml version="1.0" encoding="UTF-8"?>
<svg xmlns="http://www.w3.org/2000/svg" xmlns:xlink="http://www.w3.org/1999/xlink" width="32pt" height="32pt" viewBox="0 0 32 32" version="1.1">
<g id="surface1">
<path style=" stroke:none;fill-rule:nonzero;fill:rgb(255%,255%,255%);fill-opacity:1;" d="M 30.96875 17.90625 L 22.589844 9.53125 L 26.960938 5.160156 C 27.089844 5.035156 27.160156 4.859375 27.160156 4.679688 C 27.160156 4.5 27.085938 4.328125 26.960938 4.203125 L 22.890625 0.195312 C 22.628906 -0.0664062 22.203125 -0.0625 21.941406 0.199219 L 18.40625 3.730469 L 14.875 0.199219 C 14.746094 0.0703125 14.574219 0 14.398438 0 C 14.21875 0 14.046875 0.0703125 13.921875 0.199219 L 5.0625 9.054688 L 1.03125 13.085938 C 0.769531 13.347656 0.769531 13.773438 1.03125 14.039062 L 9.414062 22.421875 L 5.042969 26.792969 C 4.917969 26.917969 4.847656 27.089844 4.847656 27.269531 C 4.847656 27.449219 4.917969 27.617188 5.042969 27.746094 L 9.101562 31.800781 C 9.234375 31.933594 9.40625 32 9.578125 32 C 9.75 32 9.921875 31.933594 10.054688 31.800781 L 13.617188 28.238281 L 17.125 31.75 C 17.253906 31.875 17.425781 31.945312 17.601562 31.945312 C 17.78125 31.945312 17.953125 31.875 18.082031 31.75 L 30.96875 18.863281 C 31.230469 18.597656 31.230469 18.171875 30.96875 17.90625 Z M 18.882812 5.160156 L 22.421875 1.625 L 25.527344 4.6875 L 17.597656 12.617188 L 14.511719 9.535156 Z M 21.511719 18.4375 L 18.453125 21.496094 L 14.875 17.914062 L 10.5 13.542969 L 13.558594 10.488281 L 17.121094 14.046875 Z M 14.398438 1.628906 L 17.453125 4.683594 L 15.394531 6.746094 L 13.082031 9.054688 L 9.546875 12.589844 L 6.492188 9.53125 Z M 2.460938 13.5625 L 3.523438 12.5 L 8.644531 17.621094 C 8.777344 17.753906 8.949219 17.820312 9.121094 17.820312 C 9.292969 17.820312 9.464844 17.753906 9.597656 17.621094 C 9.859375 17.359375 9.859375 16.933594 9.597656 16.667969 L 4.476562 11.546875 L 5.539062 10.488281 L 13.441406 18.390625 L 12.367188 19.46875 L 10.367188 21.46875 Z M 13.140625 26.808594 L 9.578125 30.371094 L 6.472656 27.269531 L 14.398438 19.34375 L 17.246094 22.195312 L 17.5 22.449219 Z M 17.601562 30.320312 L 14.570312 27.285156 L 22.464844 19.390625 L 25.496094 22.425781 Z M 26.449219 21.472656 L 22.941406 17.960938 L 18.550781 13.570312 L 19.578125 12.542969 L 24.753906 17.71875 C 24.886719 17.851562 25.058594 17.914062 25.230469 17.914062 C 25.402344 17.914062 25.578125 17.851562 25.707031 17.71875 C 25.972656 17.453125 25.972656 17.027344 25.707031 16.765625 L 20.53125 11.589844 L 21.636719 10.484375 L 29.539062 18.382812 Z M 26.449219 21.472656 "/>
<path style=" stroke:none;fill-rule:nonzero;fill:rgb(255%,255%,255%);fill-opacity:1;" d="M 11.226562 18.460938 C 11.21875 18.417969 11.207031 18.375 11.191406 18.332031 C 11.171875 18.292969 11.152344 18.253906 11.128906 18.214844 C 11.101562 18.179688 11.074219 18.144531 11.042969 18.113281 C 11.011719 18.082031 10.976562 18.054688 10.941406 18.03125 C 10.90625 18.007812 10.867188 17.984375 10.824219 17.96875 C 10.785156 17.953125 10.742188 17.9375 10.699219 17.929688 C 10.613281 17.914062 10.523438 17.914062 10.433594 17.929688 C 10.390625 17.9375 10.351562 17.953125 10.308594 17.96875 C 10.269531 17.984375 10.230469 18.007812 10.191406 18.03125 C 10.15625 18.054688 10.121094 18.082031 10.089844 18.113281 C 10.058594 18.144531 10.03125 18.179688 10.007812 18.214844 C 9.980469 18.253906 9.960938 18.292969 9.945312 18.332031 C 9.929688 18.375 9.914062 18.417969 9.90625 18.460938 C 9.898438 18.503906 9.894531 18.546875 9.894531 18.589844 C 9.894531 18.636719 9.898438 18.679688 9.90625 18.722656 C 9.914062 18.765625 9.925781 18.808594 9.945312 18.847656 C 9.960938 18.890625 9.980469 18.929688 10.007812 18.964844 C 10.03125 19 10.058594 19.035156 10.089844 19.066406 C 10.121094 19.097656 10.15625 19.128906 10.191406 19.152344 C 10.230469 19.175781 10.269531 19.195312 10.308594 19.214844 C 10.351562 19.230469 10.390625 19.242188 10.433594 19.25 C 10.480469 19.261719 10.523438 19.265625 10.566406 19.265625 C 10.609375 19.265625 10.65625 19.261719 10.699219 19.25 C 10.742188 19.242188 10.785156 19.230469 10.824219 19.214844 C 10.867188 19.195312 10.90625 19.175781 10.941406 19.152344 C 10.976562 19.128906 11.011719 19.097656 11.042969 19.066406 C 11.074219 19.035156 11.101562 19 11.128906 18.964844 C 11.152344 18.929688 11.171875 18.890625 11.191406 18.847656 C 11.207031 18.808594 11.21875 18.765625 11.226562 18.722656 C 11.238281 18.679688 11.242188 18.636719 11.242188 18.589844 C 11.242188 18.546875 11.238281 18.503906 11.226562 18.460938 Z M 11.226562 18.460938 "/>
<path style=" stroke:none;fill-rule:nonzero;fill:rgb(255%,255%,255%);fill-opacity:1;" d="M 27.339844 18.554688 C 27.328125 18.511719 27.316406 18.46875 27.300781 18.429688 C 27.28125 18.386719 27.261719 18.347656 27.238281 18.3125 C 27.214844 18.277344 27.183594 18.242188 27.152344 18.210938 C 27.121094 18.179688 27.089844 18.152344 27.050781 18.125 C 27.015625 18.101562 26.976562 18.082031 26.933594 18.0625 C 26.894531 18.046875 26.851562 18.035156 26.808594 18.027344 C 26.722656 18.007812 26.632812 18.007812 26.546875 18.027344 C 26.503906 18.035156 26.460938 18.046875 26.417969 18.0625 C 26.378906 18.082031 26.339844 18.101562 26.304688 18.125 C 26.265625 18.152344 26.230469 18.179688 26.199219 18.210938 C 26.167969 18.242188 26.140625 18.277344 26.117188 18.3125 C 26.09375 18.347656 26.070312 18.386719 26.054688 18.429688 C 26.039062 18.46875 26.023438 18.511719 26.015625 18.554688 C 26.007812 18.597656 26.003906 18.644531 26.003906 18.6875 C 26.003906 18.730469 26.007812 18.773438 26.015625 18.820312 C 26.023438 18.863281 26.039062 18.902344 26.054688 18.945312 C 26.070312 18.984375 26.09375 19.023438 26.117188 19.0625 C 26.140625 19.097656 26.167969 19.132812 26.199219 19.164062 C 26.230469 19.195312 26.265625 19.222656 26.304688 19.246094 C 26.339844 19.269531 26.378906 19.292969 26.417969 19.308594 C 26.460938 19.324219 26.503906 19.339844 26.546875 19.347656 C 26.589844 19.355469 26.632812 19.359375 26.675781 19.359375 C 26.722656 19.359375 26.765625 19.355469 26.808594 19.347656 C 26.851562 19.339844 26.894531 19.324219 26.933594 19.308594 C 26.976562 19.292969 27.015625 19.269531 27.050781 19.246094 C 27.089844 19.222656 27.121094 19.195312 27.152344 19.164062 C 27.277344 19.039062 27.351562 18.863281 27.351562 18.6875 C 27.351562 18.644531 27.347656 18.597656 27.339844 18.554688 Z M 27.339844 18.554688 "/>
</g>
</svg>
